archdroid-icon-theme/Archdroid-Green/mimetypes/scalable/text-x-generic-template.svg

<svg fill="#4caf50" height="48" viewBox="0 0 48 48" width="48" xmlns="http://www.w3.org/2000/svg"><path d="m12 4c-2.21 0-3.980469 1.79-3.980469 4l-.019531 32c0 2.21 1.770469 4 3.980469 4h24.019531c2.21 0 4-1.79 4-4v-24l-12-12zm14 3 11 11h-11zm-2.923828 15h1.847656l5.076172 14h-2.076172l-1.039063-3h-5.769531l-1.039063 3h-2.076171zm.923828 2.664063-2.191406 6.335937h4.382812zm-8 13.335937h16v2h-16z" fill="#4caf50"/></svg>

<svg fill="#4caf50" height="48" version="1.1" viewBox="0 0 48 48" width="48" xmlns="http://www.w3.org/2000/svg"><path d="M12 4C9.79 4 8.019531 5.79 8.019531 8L8 40c0 2.21 1.770469 4 3.980469 4L36 44c2.21 0 4-1.79 4-4L40 16 28 4 12 4ZM26 7L37 18 26 18 26 7Zm-2.923828 15l1.847656 0L30 36l-2.076172 0-1.039063-3-5.769531 0-1.039063 3L18 36 23.076172 22ZM24 24.664063L21.808594 31 26.191406 31 24 24.664063ZM16 38l16 0 0 2-16 0 0-2z"/></svg>
